X:250
T: Waldesjagd (3-53), S. 155
N: P1025
O: Lothringen
S: PINCK, Louis: Verklingende Weisen, Bd3, Metz 1933]
R: Jaglied]
M: 2/4
L: 1/16
K: F
A2 | c2c2B2B2 | A2A2G2z2
F2E2D2E2 | F2D2C2z2
F2F2F2F2 | E2F2G2z2
c2c2G2z2 | F2E2F2z2
c2c2B2A2 | A2A2G2G2
F2E2D2E2 | FED2C2C2
F2F2F2F2 | E2F2G2z2
c2c2G2G2 | F2E2F2

